web/public/images/3p-logos/prisma.svg

<svg width="54" height="48" viewBox="0 0 54 48" fill="none" xmlns="http://www.w3.org/2000/svg">
<path d="M46.3776 36.4677L29.9164 1.50995C29.4997 0.633484 28.636 0.0560184 27.6668 0.00586477C26.6954 -0.0592216 25.7684 0.421341 25.2617 1.25269L7.40773 30.1702C6.85346 31.0616 6.86513 32.1932 7.43765 33.073L16.1666 46.5907C16.8448 47.6328 18.1278 48.1046 19.3196 47.7502L44.6509 40.2572C45.4226 40.0316 46.0586 39.4825 46.3943 38.752C46.7255 38.0249 46.7198 37.189 46.3788 36.4665L46.3776 36.4677ZM42.6922 37.967L21.197 44.3232C20.5413 44.5182 19.9119 43.9499 20.0483 43.2882L27.7279 6.5164C27.8715 5.82837 28.8215 5.71948 29.1219 6.35606L43.3383 36.5455C43.4655 36.8177 43.467 37.1321 43.3425 37.4056C43.218 37.679 42.9799 37.8842 42.691 37.967H42.6922Z" fill="black"/>
</svg>

<svg fill="none" height="48" width="54" xmlns="http://www.w3.org/2000/svg"><path d="M46.378 36.468 29.916 1.51a2.642 2.642 0 0 0-2.25-1.504 2.612 2.612 0 0 0-2.404 1.247L7.408 30.17a2.704 2.704 0 0 0 .03 2.903l8.729 13.518a2.807 2.807 0 0 0 3.153 1.16l25.33-7.494a2.776 2.776 0 0 0 1.744-1.505 2.716 2.716 0 0 0-.015-2.285zm-3.686 1.499-21.495 6.356c-.656.195-1.285-.373-1.149-1.035l7.68-36.772c.143-.688 1.093-.797 1.394-.16l14.216 30.19a1.027 1.027 0 0 1-.647 1.421z" fill="#000"/></svg>
